X:50
T:Mrs. Farquharson of Inverey's Strathspey
S:Petrie's Collection of Strathspey Reels and Country Dances &c., 1790
Z:Steve Wyrick <sjwyrick'at'gmail'dot'com>, 3/20/04
N:Petrie's First Collection, page 22
L:1/8
M:C
R:Strathspey
K:C
   C|E<(GGA/B/) Tc>dc<G|E<(GG)c     d<DD>F   |\
     E<(GGA/B/)  c>GA<a|gc g/f/e/d/ ecc     :|
e/f/|g>ce>c      G>ce<c|f>de<c      d(DD)e/f/|\
     g<ce>c      G>ce<c|fd g/a/g/f/ ecce/f/  |
     g>ce>c      G>ce<c|f>ge>f      d(DD)F   |\
     G>EG<c      A>FA<c|B<dG>f      ecc     |]
